public/avatar/item2/9.svg

<svg xmlns:xlink="http://www.w3.org/1999/xlink" height="99.2" width="82.2" xmlns="http://www.w3.org/2000/svg"><use height="23.55" transform="translate(13.45 67.9)" width="33.95" xlink:href="#a"/><defs><g id="a" fill-rule="evenodd"><path d="m15.6 21.55.1-.05.6.05.1.05v.1l-.05.95-.55 1.65v.05q-.9 1.85-2.35 3.4-4.8 4.95-14.1 4.95-9.35 0-14-5.15-1.55-1.6-2.35-3.6l-.55-1.7v-.9l.05-.1.1-.05.55-.05.1.05.05.05v.05l.5 1.4q.7 1.65 2.05 3.1 4.3 4.45 13.3 4.45 9.5 0 13.85-4.3 1.35-1.35 2.05-2.95l.45-1.35.05-.05.05-.05" fill="#aa2f11" transform="translate(17.55 -21.15)"/><path d="M13.2 27.45q-4.65 4.8-13.85 4.8t-13.75-5q-1.45-1.6-2.2-3.5l-.5-1.55v-.85l.45 1.45q.7 1.75 2.05 3.2 4.4 4.65 13.75 4.65 9.8 0 14.3-4.45 1.4-1.45 2.1-3.1l.4-1.4v.9l-.5 1.5q-.85 1.8-2.25 3.35" fill="#f99952" transform="translate(17.55 -21.15)"/><path d="M9.95 29.9Q5.7 32.25-.65 32.25l-.2-1.6q6.5 0 10.65-1.95 1 .35.15 1.2" fill="#f9cd52" transform="translate(17.55 -21.15)"/><path d="M13.15 27.15Q8.5 31.95-.7 31.95t-13.75-5q-1.35-1.5-2.1-3.25.7 1.5 1.95 2.8 4.4 4.55 13.7 4.55 9.85 0 14.3-4.35l1.05-1.2-1.3 1.65" fill="#f9ff99" transform="translate(17.55 -21.15)"/><path d="m-2.95 31.1-.35.45q-3.15-.3-5.6-1.6 2.1.8 5.95 1.15m3.25.5-.5-.45L8.2 30q-2.15.8-5.25 1.3l-2.65.3" fill="#fbfae4" transform="translate(17.55 -21.15)"/><path d="M4.4 33.7q1.9 1.9 1.9 4.55T4.4 42.8q-1.9 1.9-4.55 1.9t-4.55-1.9q-1.9-1.9-1.9-4.55t1.9-4.55q1.9-1.85 4.55-1.85T4.4 33.7" fill="#a32d10" transform="translate(17.55 -21.15)"/><path d="M5.6 38.15q0 2.45-1.75 4.2Q2.15 44.1-.3 44.1t-4.2-1.75q-1.75-1.75-1.75-4.2T-4.5 34q1.75-1.75 4.2-1.75T3.85 34q1.75 1.7 1.75 4.15" fill="#f9cd52" transform="translate(17.55 -21.15)"/><path d="m2.35 33.05.15.05q3.35 1.6 3.35 5.3 0 2.45-1.75 4.15Q2.4 44.3-.05 44.3q-2.3 0-3.95-1.5l-.3-2.15q0-3.15 1.95-5.35 1.95-2.25 4.7-2.25" fill="#f99952" transform="translate(17.55 -21.15)"/><path d="M5.15 38.05q0 2.2-1.55 3.8Q2 43.4-.2 43.4q-2.2 0-3.8-1.55-1.55-1.6-1.55-3.8 0-2.2 1.55-3.8 1.6-1.55 3.8-1.55 2.2 0 3.8 1.55 1.55 1.6 1.55 3.8" fill="#f9ff99" transform="translate(17.55 -21.15)"/><path d="M.25 34.95q2.95.55 2.5 3.45-.55 2.95-3.5 2.5-3-.55-2.45-3.5.55-3 3.45-2.45" fill="#ed794d" transform="translate(17.55 -21.15)"/><path d="M.6 35.25q2.9.55 2.45 3.5-.55 2.9-3.45 2.45-2.95-.55-2.5-3.5.55-2.9 3.5-2.45" fill="#ed794d" transform="translate(17.55 -21.15)"/><path d="M.25 34.9q1.05.15 1.85 1.1 0 .7-1.65 2.35-.95.95-2 1.3l-1 .15q-.9-1.1-.7-2.45.55-3 3.5-2.45" fill="#f99952" transform="translate(17.55 -21.15)"/><path d="M-.25 35.9q-1.5.65-2.4 2 .05-2.2 1.9-2.5l1.8.1-1.3.4" fill="#f9cd52" transform="translate(17.55 -21.15)"/><path d="M1.6 35.25 3 35.2q2 .9-1.25 4.2-1.5 1.55-3 2.15-1.5.55-2-.3-.3-.65.25-1.85l.05.5q.9 1.35 3.7-1.45Q3.2 36 1.9 35.35l-.3-.1m-2.5.7-1.2.6.7-.7 1.65-.3-1.15.4" fill="#f9ff99" transform="translate(17.55 -21.15)"/><path d="M2.7 35.25q1.85-.6 1.6.9-.05.6-2.2 3.15Q.6 41.25-2.25 42q-.7.2-1.4 0-.7-.25-.65-.65l1.15.4q1.7-.25 4-2.05 3.25-2.45 3-3.8-.05-.55-.75-.55l-.65.1.25-.2" fill="#ed794d" transform="translate(17.55 -21.15)"/><path d="M-4.4 34.85q-1.15 1.8-1.15 4.4-.55-3.1.95-4.9.95-1.1 2.85-1.55l1.7-.2-1.75.45q-1.9.7-2.6 1.8" fill="#fbfae4" transform="translate(17.55 -21.15)"/></g></defs></svg>

<?xml version="1.0" encoding="UTF-8" standalone="no"?>
<svg xmlns:xlink="http://www.w3.org/1999/xlink" height="99.2px" width="82.2px" xmlns="http://www.w3.org/2000/svg">
  <g transform="matrix(1.0, 0.0, 0.0, 1.0, 31.0, 46.75)">
    <use height="23.55" transform="matrix(1.0, 0.0, 0.0, 1.0, -17.55, 21.15)" width="33.95" xlink:href="#shape0"/>
  </g>
  <defs>
    <g id="shape0" transform="matrix(1.0, 0.0, 0.0, 1.0, 17.55, -21.15)">
      <path d="M15.6 21.55 L15.7 21.5 16.3 21.55 16.4 21.6 16.4 21.7 16.35 22.65 15.8 24.3 15.8 24.35 Q14.9 26.2 13.45 27.75 8.65 32.7 -0.65 32.7 -10.0 32.7 -14.65 27.55 -16.2 25.95 -17.0 23.95 L-17.55 22.25 -17.55 21.35 -17.5 21.25 -17.4 21.2 -16.85 21.15 -16.75 21.2 -16.7 21.25 -16.7 21.3 -16.2 22.7 Q-15.5 24.35 -14.15 25.8 -9.85 30.25 -0.85 30.25 8.65 30.25 13.0 25.95 14.35 24.6 15.05 23.0 L15.5 21.65 15.55 21.6 15.6 21.55" fill="#aa2f11" fill-rule="evenodd" stroke="none"/>
      <path d="M13.2 27.45 Q8.55 32.25 -0.65 32.25 -9.85 32.25 -14.4 27.25 -15.85 25.65 -16.6 23.75 L-17.1 22.2 -17.1 21.35 -16.65 22.8 Q-15.95 24.55 -14.6 26.0 -10.2 30.65 -0.85 30.65 8.95 30.65 13.45 26.2 14.85 24.75 15.55 23.1 L15.95 21.7 15.95 22.6 15.45 24.1 Q14.6 25.9 13.2 27.45" fill="#f99952" fill-rule="evenodd" stroke="none"/>
      <path d="M9.95 29.9 Q5.7 32.25 -0.65 32.25 L-0.85 30.65 Q5.65 30.65 9.8 28.7 10.8 29.05 9.95 29.9" fill="#f9cd52" fill-rule="evenodd" stroke="none"/>
      <path d="M13.15 27.15 Q8.5 31.95 -0.7 31.95 -9.9 31.95 -14.45 26.95 -15.8 25.45 -16.55 23.7 -15.85 25.2 -14.6 26.5 -10.2 31.05 -0.9 31.05 8.95 31.05 13.4 26.7 L14.45 25.5 13.15 27.15" fill="#f9ff99" fill-rule="evenodd" stroke="none"/>
      <path d="M-2.95 31.1 L-3.3 31.55 Q-6.45 31.25 -8.9 29.95 -6.8 30.75 -2.95 31.1" fill="#fbfae4" fill-rule="evenodd" stroke="none"/>
      <path d="M0.3 31.6 L-0.2 31.15 8.2 30.0 Q6.05 30.8 2.95 31.3 L0.3 31.6" fill="#fbfae4" fill-rule="evenodd" stroke="none"/>
      <path d="M4.4 33.7 Q6.3 35.6 6.3 38.25 6.3 40.9 4.4 42.8 2.5 44.7 -0.15 44.7 -2.8 44.7 -4.7 42.8 -6.6 40.9 -6.6 38.25 -6.6 35.6 -4.7 33.7 -2.8 31.85 -0.15 31.85 2.5 31.85 4.4 33.7" fill="#a32d10" fill-rule="evenodd" stroke="none"/>
      <path d="M5.6 38.15 Q5.6 40.6 3.85 42.35 2.15 44.1 -0.3 44.1 -2.75 44.1 -4.5 42.35 -6.25 40.6 -6.25 38.15 -6.25 35.7 -4.5 34.0 -2.75 32.25 -0.3 32.25 2.15 32.25 3.85 34.0 5.6 35.7 5.6 38.15" fill="#f9cd52" fill-rule="evenodd" stroke="none"/>
      <path d="M2.35 33.05 L2.5 33.1 Q5.85 34.7 5.85 38.4 5.85 40.85 4.1 42.55 2.4 44.3 -0.05 44.3 -2.35 44.3 -4.0 42.8 L-4.3 40.65 Q-4.3 37.5 -2.35 35.3 -0.4 33.05 2.35 33.05" fill="#f99952" fill-rule="evenodd" stroke="none"/>
      <path d="M5.15 38.05 Q5.15 40.25 3.6 41.85 2.0 43.4 -0.2 43.4 -2.4 43.4 -4.0 41.85 -5.55 40.25 -5.55 38.05 -5.55 35.85 -4.0 34.25 -2.4 32.7 -0.2 32.7 2.0 32.7 3.6 34.25 5.15 35.85 5.15 38.05" fill="#f9ff99" fill-rule="evenodd" stroke="none"/>
      <path d="M0.25 34.95 Q3.2 35.5 2.75 38.4 2.2 41.35 -0.75 40.9 -3.75 40.35 -3.2 37.4 -2.65 34.4 0.25 34.95" fill="#ed794d" fill-rule="evenodd" stroke="none"/>
      <path d="M0.6 35.25 Q3.5 35.8 3.05 38.75 2.5 41.65 -0.4 41.2 -3.35 40.65 -2.9 37.7 -2.35 34.8 0.6 35.25" fill="#ed794d" fill-rule="evenodd" stroke="none"/>
      <path d="M0.25 34.9 Q1.3 35.05 2.1 36.0 2.1 36.7 0.45 38.35 -0.5 39.3 -1.55 39.65 L-2.55 39.8 Q-3.45 38.7 -3.25 37.35 -2.7 34.35 0.25 34.9" fill="#f99952" fill-rule="evenodd" stroke="none"/>
      <path d="M-0.25 35.9 Q-1.75 36.55 -2.65 37.9 -2.6 35.7 -0.75 35.4 L1.05 35.5 -0.25 35.9" fill="#f9cd52" fill-rule="evenodd" stroke="none"/>
      <path d="M1.6 35.25 L3.0 35.2 Q5.0 36.1 1.75 39.4 0.25 40.95 -1.25 41.55 -2.75 42.1 -3.25 41.25 -3.55 40.6 -3.0 39.4 L-2.95 39.9 Q-2.05 41.25 0.75 38.45 3.2 36.0 1.9 35.35 L1.6 35.25" fill="#f9ff99" fill-rule="evenodd" stroke="none"/>
      <path d="M-0.9 35.95 L-2.1 36.55 -1.4 35.85 0.25 35.55 -0.9 35.95" fill="#f9ff99" fill-rule="evenodd" stroke="none"/>
      <path d="M2.7 35.25 Q4.55 34.65 4.3 36.15 4.25 36.75 2.1 39.3 0.6 41.25 -2.25 42.0 -2.95 42.2 -3.65 42.0 -4.35 41.75 -4.3 41.35 L-3.15 41.75 Q-1.45 41.5 0.85 39.7 4.1 37.25 3.85 35.9 3.8 35.35 3.1 35.35 L2.45 35.45 2.7 35.25" fill="#ed794d" fill-rule="evenodd" stroke="none"/>
      <path d="M-4.4 34.85 Q-5.55 36.65 -5.55 39.25 -6.1 36.15 -4.6 34.35 -3.65 33.25 -1.75 32.8 L-0.05 32.6 -1.8 33.05 Q-3.7 33.75 -4.4 34.85" fill="#fbfae4" fill-rule="evenodd" stroke="none"/>
    </g>
  </defs>
</svg>
